X:1
T:Camillien
C:Laurence Beaudry
Z:robin.beech@mcgill.ca
R:jig
M:6/8
L:1/8
K:Bm
FBd cBA | GBd cBA | EAA cAA | fed c2B |
FBd cBA | GBd cBA | EAA cAA | efd B2G ::
gab e2d | cag fdB | gee ceg | abg fef |
gab e2d | cag fdB | FBB GBB | Ecd B3 :|
